icons/folder_type_vscode_test_opened.svg

<svg xmlns="http://www.w3.org/2000/svg" viewBox="0 0 32 32"><path d="M27.4 5.5h-9.2l-2.1 4.2H4.3v4H.5l3.8 12.8h25.2v-21Zm-7.2 2.1h7.1v2.1h-8.1Zm5.5 6.1H6.6v-1.9h20.8v7.626Z" style="fill:#d32626"/><path d="m30.257 12.333-4.324-2.082a1.308 1.308 0 0 0-1.492.253L10.285 23.411a.875.875 0 0 0-.057 1.236.766.766 0 0 0 .057.057l1.157 1.052a.873.873 0 0 0 1.116.049l17.049-12.932a.868.868 0 0 1 1.393.692v-.05a1.311 1.311 0 0 0-.743-1.182Z" style="fill:#0065a9"/><path d="m30.257 28.788-4.324 2.082a1.308 1.308 0 0 1-1.492-.253L10.285 17.71a.875.875 0 0 1-.057-1.236.766.766 0 0 1 .057-.057l1.157-1.052a.873.873 0 0 1 1.116-.049l17.049 12.932A.868.868 0 0 0 31 27.556v.05a1.311 1.311 0 0 1-.743 1.182Z" style="fill:#007acc"/><path d="M25.933 30.871a1.308 1.308 0 0 1-1.491-.254.768.768 0 0 0 1.311-.543V11.047a.768.768 0 0 0-1.311-.543 1.306 1.306 0 0 1 1.491-.254l4.324 2.079A1.314 1.314 0 0 1 31 13.512v14.1a1.314 1.314 0 0 1-.743 1.183Z" style="fill:#1f9cf0"/></svg>

<svg xmlns="http://www.w3.org/2000/svg" viewBox="0 0 32 32"><title>folder_type_vscode_test_opened</title><path d="M27.4,5.5H18.2L16.1,9.7H4.3v4H.5L4.3,26.5H29.5V5.5ZM20.2,7.6h7.1V9.7H19.2Zm5.5,6.1H6.6V11.8H27.4v7.626Z" style="fill:#d32626"/><path d="M30.257,12.333l-4.324-2.082a1.308,1.308,0,0,0-1.492.253L10.285,23.411a.875.875,0,0,0-.057,1.236.766.766,0,0,0,.057.057l1.157,1.052a.873.873,0,0,0,1.116.049L29.607,12.873A.868.868,0,0,1,31,13.565v-.05A1.311,1.311,0,0,0,30.257,12.333Z" style="fill:#0065a9"/><path d="M30.257,28.788,25.933,30.87a1.308,1.308,0,0,1-1.492-.253L10.285,17.71a.875.875,0,0,1-.057-1.236.766.766,0,0,1,.057-.057l1.157-1.052a.873.873,0,0,1,1.116-.049L29.607,28.248A.868.868,0,0,0,31,27.556v.05A1.311,1.311,0,0,1,30.257,28.788Z" style="fill:#007acc"/><path d="M25.933,30.871a1.308,1.308,0,0,1-1.491-.254.768.768,0,0,0,1.311-.543V11.047a.768.768,0,0,0-1.311-.543,1.306,1.306,0,0,1,1.491-.254l4.324,2.079A1.314,1.314,0,0,1,31,13.512v14.1a1.314,1.314,0,0,1-.743,1.183Z" style="fill:#1f9cf0"/></svg>
